Yaru++/mimetypes/16/text-markdown.svg

<svg height="16" width="16" xmlns="http://www.w3.org/2000/svg" xmlns:xlink="http://www.w3.org/1999/xlink"><linearGradient id="a" gradientUnits="userSpaceOnUse" x1="8.00056" x2="8.00056" y1="1" y2="15"><stop offset="0" stop-color="#fff"/><stop offset=".125" stop-color="#fff" stop-opacity=".098039"/><stop offset=".92500001" stop-color="#fff" stop-opacity=".098039"/><stop offset="1" stop-color="#fff" stop-opacity=".498039"/></linearGradient><linearGradient id="b" gradientTransform="matrix(0 -.03604403 .03604301 0 -3.564212 16.90909)" gradientUnits="userSpaceOnUse" x1="459.03448" x2="35.310345" y1="419.23337" y2="207.36522"><stop offset="0" stop-color="#f2f2f2"/><stop offset="1" stop-color="#f9f9f9"/></linearGradient><path d="m5.0962578 1c-.71904 0-1.30185.0139-1.83593.10352-.53409.0897-1.0683.27628-1.47657.68359-.40826.4073-.59657.94323-.68554 1.47851-.089.53529-.10119004 1.12048-.0977 1.8418v2.89258 3.89844c-.003.71816.009 1.30235.0977 1.83594.089.53528.27727 1.07121.68554 1.47851.40827.40731.94248.59394 1.47657.68359.53408.0897 1.11689.10352 1.83593.10352h5.8085992c.719041 0 1.300581-.0137 1.833981-.10352.53341-.0898 1.06768-.27792 1.47461-.68554s.59404-.94271.68359-1.47656c.08956-.53386.10352-1.11551.10352-1.83594v-3.89844-3l-4-4z" opacity=".1"/><path d="m5.0970178 1c-2.80769 0-3.10979.28839-3.09603 3.10176v3.89824 3.89824c-.0138 2.81337.28834 3.10176 3.09603 3.10176h5.8074992c2.807701 0 3.096041-.28835 3.096041-3.10176v-3.89824-4l-3-3z" fill="none" opacity=".2" stroke="#000" stroke-width="2"/><path d="m5.0970178 1c-2.80769 0-3.10979.28839-3.09603 3.10176v3.89824 3.89824c-.0138 2.81337.28834 3.10176 3.09603 3.10176h5.8074992c2.807701 0 3.096041-.28835 3.096041-3.10176v-3.89824-4l-3-3z" fill="url(#b)"/><path d="m4.0005578 8v4h1v-2.1875l1 1.5625.9999997-1.5625v2.1875h1v-4h-1l-.9999997 1.5625-1-1.5625zm5.9999992 0v2h-.9999995l.9999995 2h1.000001l1-2h-1v-2z" fill="#455a64"/><path d="m8.0005575 1v14h2.9042995c2.807701 0 3.095701-.28815 3.095701-3.10156v-3.89844-4l-3-3z" fill="#fff" opacity=".2"/><path d="m2.0005578 8v3.89844c-.0138 2.81337.28801 3.10156 3.0957 3.10156h5.8085992c2.807701 0 3.095701-.28815 3.095701-3.10156v-3.89844z" fill="#fff" opacity=".2"/><path d="m5.0962578 1c-2.80769 0-3.10946.28819-3.0957 3.10156v3.89844 3.89844c-.0138 2.81337.28801 3.10156 3.0957 3.10156h5.8085992c2.807701 0 3.095701-.28815 3.095701-3.10156v-3.89844-4l-3-3zm0 1h5.9043002l2 2v4 3.89844c0 .68627-.022 1.19438-.0742 1.50586-.0522.31147-.11279.37642-.1289.39258-.0161.0161-.0803.0767-.39063.1289-.31036.05222-.81716.07422-1.501971.07422h-5.8085992c-.6848 0-1.19211-.0238-1.5039-.0762-.3118-.0523-.37803-.1105-.39453-.12695-.0165-.0165-.0754-.0806-.12696-.39063-.0515-.31005-.0737-.81855-.0703-1.50391v-.002-3.90031-3.90039-.002c-.003-.68537.0188-1.19386.0703-1.50391s.11045-.37416.12696-.39063c.0165-.0165.0827-.0746.39453-.12695.31179-.0523.8191-.0762 1.5039-.0762z" fill="url(#a)" opacity=".4"/><path d="m14.000558 5v-1l-3-3h-1.000001v1.53057.0587.0315c0 2.06981.27707 2.38897 2.351631 2.37882z" opacity=".2"/><path d="m14.000558 3.99962-3-2.99962v1.11269.0485.026c0 1.70759.0787 1.82093 1.79021 1.81256z" fill="#faf8f6"/></svg>

<?xml version="1.0" encoding="UTF-8" standalone="no"?>
<svg
   xmlns:dc="http://purl.org/dc/elements/1.1/"
   xmlns:cc="http://creativecommons.org/ns#"
   xmlns:rdf="http://www.w3.org/1999/02/22-rdf-syntax-ns#"
   xmlns:svg="http://www.w3.org/2000/svg"
   xmlns="http://www.w3.org/2000/svg"
   xmlns:xlink="http://www.w3.org/1999/xlink"
   xmlns:sodipodi="http://sodipodi.sourceforge.net/DTD/sodipodi-0.dtd"
   xmlns:inkscape="http://www.inkscape.org/namespaces/inkscape"
   height="16"
   width="16"
   version="1.1"
   id="svg33"
   sodipodi:docname="text-markdown.svg"
   inkscape:version="0.92.5 (2060ec1f9f, 2020-04-08)">
  <metadata
     id="metadata39">
    <rdf:RDF>
      <cc:Work
         rdf:about="">
        <dc:format>image/svg+xml</dc:format>
        <dc:type
           rdf:resource="http://purl.org/dc/dcmitype/StillImage" />
      </cc:Work>
    </rdf:RDF>
  </metadata>
  <defs
     id="defs37">
    <linearGradient
       gradientTransform="translate(-319.99944,-236)"
       inkscape:collect="always"
       xlink:href="#linearGradient927"
       id="linearGradient993"
       x1="328"
       y1="237"
       x2="328"
       y2="251"
       gradientUnits="userSpaceOnUse" />
    <linearGradient
       inkscape:collect="always"
       id="linearGradient927">
      <stop
         style="stop-color:#ffffff;stop-opacity:1;"
         offset="0"
         id="stop923" />
      <stop
         id="stop933"
         offset="0.125"
         style="stop-color:#ffffff;stop-opacity:0.09803922" />
      <stop
         id="stop931"
         offset="0.92500001"
         style="stop-color:#ffffff;stop-opacity:0.09803922" />
      <stop
         style="stop-color:#ffffff;stop-opacity:0.49803922"
         offset="1"
         id="stop925" />
    </linearGradient>
    <linearGradient
       inkscape:collect="always"
       xlink:href="#linearGradient4338"
       id="linearGradient920"
       gradientUnits="userSpaceOnUse"
       gradientTransform="matrix(0,-0.03604403,0.03604301,0,-3.5642122,16.90909)"
       x1="459.03448"
       y1="419.23337"
       x2="35.310345"
       y2="207.36522" />
    <linearGradient
       inkscape:collect="always"
       id="linearGradient4338">
      <stop
         style="stop-color:#f2f2f2;stop-opacity:1"
         offset="0"
         id="stop4340" />
      <stop
         style="stop-color:#f9f9f9;stop-opacity:1"
         offset="1"
         id="stop4342" />
    </linearGradient>
  </defs>
  <sodipodi:namedview
     pagecolor="#ffffff"
     bordercolor="#666666"
     borderopacity="1"
     objecttolerance="10"
     gridtolerance="10"
     guidetolerance="10"
     inkscape:pageopacity="0"
     inkscape:pageshadow="2"
     inkscape:window-width="834"
     inkscape:window-height="480"
     id="namedview35"
     showgrid="false"
     inkscape:zoom="14.75"
     inkscape:cx="8"
     inkscape:cy="8"
     inkscape:window-x="0"
     inkscape:window-y="28"
     inkscape:window-maximized="0"
     inkscape:current-layer="svg33" />
  <linearGradient
     id="a"
     gradientUnits="userSpaceOnUse"
     x1="328"
     x2="328"
     y1="237"
     y2="251">
    <stop
       offset="0"
       stop-color="#fff"
       id="stop2" />
    <stop
       offset=".125"
       stop-color="#fff"
       stop-opacity=".098039"
       id="stop4" />
    <stop
       offset=".92500001"
       stop-color="#fff"
       stop-opacity=".098039"
       id="stop6" />
    <stop
       offset="1"
       stop-color="#fff"
       stop-opacity=".498039"
       id="stop8" />
  </linearGradient>
  <clipPath
     id="b">
    <path
       d="m325.09646 237c-2.80769 0-3.10979.28839-3.09603 3.10176v3.89824 3.89824c-.0138 2.81337.28834 3.10176 3.09603 3.10176h5.8075c2.8077 0 3.09604-.28835 3.09604-3.10176v-3.89824-3.89824c0-2.8134-.28835-3.10176-3.09604-3.10176z"
       id="path11" />
  </clipPath>
  <linearGradient
     id="c"
     gradientTransform="matrix(0 -.03604403 .03604301 0 -3.564212 16.90909)"
     gradientUnits="userSpaceOnUse"
     x1="459.03448"
     x2="35.310345"
     y1="419.23337"
     y2="207.36522">
    <stop
       offset="0"
       stop-color="#f2f2f2"
       id="stop14" />
    <stop
       offset="1"
       stop-color="#f9f9f9"
       id="stop16" />
  </linearGradient>
  <path
     style="color:#000000;font-style:normal;font-variant:normal;font-weight:normal;font-stretch:normal;font-size:medium;line-height:normal;font-family:sans-serif;font-variant-ligatures:normal;font-variant-position:normal;font-variant-caps:normal;font-variant-numeric:normal;font-variant-alternates:normal;font-feature-settings:normal;text-indent:0;text-align:start;text-decoration:none;text-decoration-line:none;text-decoration-style:solid;text-decoration-color:#000000;letter-spacing:normal;word-spacing:normal;text-transform:none;writing-mode:lr-tb;direction:ltr;text-orientation:mixed;dominant-baseline:auto;baseline-shift:baseline;text-anchor:start;white-space:normal;shape-padding:0;clip-rule:nonzero;display:inline;overflow:visible;visibility:visible;opacity:0.1;isolation:auto;mix-blend-mode:normal;color-interpolation:sRGB;color-interpolation-filters:linearRGB;solid-color:#000000;solid-opacity:1;vector-effect:none;fill:#000000;fill-opacity:1;fill-rule:nonzero;stroke:none;stroke-width:2;stroke-linecap:butt;stroke-linejoin:miter;stroke-miterlimit:4;stroke-dasharray:none;stroke-dashoffset:0;stroke-opacity:1;marker:none;color-rendering:auto;image-rendering:auto;shape-rendering:auto;text-rendering:auto;enable-background:accumulate"
     d="m 5.0962578,1 c -0.71904,0 -1.30185,0.0139 -1.83593,0.10352 -0.53409,0.0897 -1.0683,0.27628 -1.47657,0.68359 -0.40826,0.4073 -0.59657,0.94323 -0.68554,1.47851 -0.089,0.53529 -0.10119004,1.12048 -0.0977,1.8418 V 8 11.89844 c -0.003,0.71816 0.009,1.30235 0.0977,1.83594 0.089,0.53528 0.27727,1.07121 0.68554,1.47851 0.40827,0.40731 0.94248,0.59394 1.47657,0.68359 0.53408,0.0897 1.11689,0.10352 1.83593,0.10352 h 5.8085992 c 0.719041,0 1.300581,-0.0137 1.833981,-0.10352 0.53341,-0.0898 1.06768,-0.27792 1.47461,-0.68554 0.40693,-0.40762 0.59404,-0.94271 0.68359,-1.47656 0.08956,-0.53386 0.10352,-1.11551 0.10352,-1.83594 V 8 5 l -4,-4 z"
     id="path997"
     inkscape:connector-curvature="0"
     sodipodi:nodetypes="scscccccccsscscscccs" />
  <path
     sodipodi:nodetypes="scccssscccs"
     inkscape:connector-curvature="0"
     id="path928"
     d="m 5.0970178,1 c -2.80769,0 -3.10979,0.28839 -3.09603,3.10176 V 8 11.89824 C 1.9871878,14.71161 2.2893278,15 5.0970178,15 h 5.8074992 c 2.807701,0 3.096041,-0.28835 3.096041,-3.10176 V 8 4 l -3,-3 z"
     style="color:#000000;display:inline;overflow:visible;visibility:visible;opacity:0.2;fill:none;fill-opacity:1;fill-rule:nonzero;stroke:#000000;stroke-width:2;stroke-miterlimit:4;stroke-dasharray:none;stroke-opacity:1;marker:none;enable-background:accumulate" />
  <path
     style="color:#000000;display:inline;overflow:visible;visibility:visible;fill:url(#linearGradient920);fill-opacity:1;fill-rule:nonzero;stroke:none;stroke-width:1;marker:none;enable-background:accumulate"
     d="m 5.0970178,1 c -2.80769,0 -3.10979,0.28839 -3.09603,3.10176 V 8 11.89824 C 1.9871878,14.71161 2.2893278,15 5.0970178,15 h 5.8074992 c 2.807701,0 3.096041,-0.28835 3.096041,-3.10176 V 8 4 l -3,-3 z"
     id="path918"
     inkscape:connector-curvature="0"
     sodipodi:nodetypes="scccssscccs" />
  <path
     sodipodi:nodetypes="cccccccccccccccccccccc"
     inkscape:connector-curvature="0"
     id="path1210"
     d="m 4.0005578,8 v 4 h 1 V 9.8125 l 1,1.5625 0.9999997,-1.5625 V 12 h 1 V 8 h -1 l -0.9999997,1.5625 -1,-1.5625 z m 5.9999992,0 v 2 H 9.0005575 l 0.9999995,2 h 1.000001 l 1,-2 h -1 V 8 Z"
     style="color:#000000;font-style:normal;font-variant:normal;font-weight:normal;font-stretch:normal;font-size:medium;line-height:normal;font-family:sans-serif;text-indent:0;text-align:start;text-decoration:none;text-decoration-line:none;text-decoration-style:solid;text-decoration-color:#000000;letter-spacing:normal;word-spacing:normal;text-transform:none;writing-mode:lr-tb;direction:ltr;baseline-shift:baseline;text-anchor:start;white-space:normal;clip-rule:nonzero;display:inline;overflow:visible;visibility:visible;opacity:1;isolation:auto;mix-blend-mode:normal;color-interpolation:sRGB;color-interpolation-filters:linearRGB;solid-color:#000000;solid-opacity:1;fill:#455a64;fill-opacity:1;fill-rule:nonzero;stroke:none;stroke-width:16;stroke-linecap:butt;stroke-linejoin:miter;stroke-miterlimit:4;stroke-dasharray:none;stroke-dashoffset:0;stroke-opacity:1;color-rendering:auto;image-rendering:auto;shape-rendering:auto;text-rendering:auto;enable-background:accumulate" />
  <path
     style="color:#000000;display:inline;overflow:visible;visibility:visible;opacity:0.2;fill:#ffffff;fill-opacity:1;fill-rule:nonzero;stroke:none;stroke-width:1;marker:none;enable-background:accumulate"
     d="m 8.0005575,1 v 14 h 2.9042995 c 2.807701,0 3.095701,-0.28815 3.095701,-3.10156 V 8 4 l -3,-3 z"
     id="path1009"
     inkscape:connector-curvature="0"
     sodipodi:nodetypes="ccsscccc" />
  <path
     style="color:#000000;display:inline;overflow:visible;visibility:visible;opacity:0.2;fill:#ffffff;fill-opacity:1;fill-rule:nonzero;stroke:none;stroke-width:1;marker:none;enable-background:accumulate"
     d="m 2.0005578,8 v 3.89844 C 1.9867578,14.71181 2.2885678,15 5.0962578,15 h 5.8085992 c 2.807701,0 3.095701,-0.28815 3.095701,-3.10156 V 8 Z"
     id="path1016"
     inkscape:connector-curvature="0" />
  <path
     style="color:#000000;font-style:normal;font-variant:normal;font-weight:normal;font-stretch:normal;font-size:medium;line-height:normal;font-family:sans-serif;font-variant-ligatures:normal;font-variant-position:normal;font-variant-caps:normal;font-variant-numeric:normal;font-variant-alternates:normal;font-feature-settings:normal;text-indent:0;text-align:start;text-decoration:none;text-decoration-line:none;text-decoration-style:solid;text-decoration-color:#000000;letter-spacing:normal;word-spacing:normal;text-transform:none;writing-mode:lr-tb;direction:ltr;text-orientation:mixed;dominant-baseline:auto;baseline-shift:baseline;text-anchor:start;white-space:normal;shape-padding:0;clip-rule:nonzero;display:inline;overflow:visible;visibility:visible;opacity:0.4;isolation:auto;mix-blend-mode:normal;color-interpolation:sRGB;color-interpolation-filters:linearRGB;solid-color:#000000;solid-opacity:1;vector-effect:none;fill:url(#linearGradient993);fill-opacity:1;fill-rule:nonzero;stroke:none;stroke-width:2;stroke-linecap:butt;stroke-linejoin:miter;stroke-miterlimit:4;stroke-dasharray:none;stroke-dashoffset:0;stroke-opacity:1;marker:none;color-rendering:auto;image-rendering:auto;shape-rendering:auto;text-rendering:auto;enable-background:accumulate"
     clip-path="none"
     d="m 5.0962578,1 c -2.80769,0 -3.10946,0.28819 -3.0957,3.10156 V 8 11.89844 C 1.9867578,14.71181 2.2885678,15 5.0962578,15 h 5.8085992 c 2.807701,0 3.095701,-0.28815 3.095701,-3.10156 V 8 4 l -3,-3 z m 0,1 h 5.9043002 l 2,2 v 4 3.89844 c 0,0.68627 -0.022,1.19438 -0.0742,1.50586 -0.0522,0.31147 -0.11279,0.37642 -0.1289,0.39258 -0.0161,0.0161 -0.0803,0.0767 -0.39063,0.1289 C 12.096468,13.978 11.589668,14 10.904857,14 H 5.0962578 c -0.6848,0 -1.19211,-0.0238 -1.5039,-0.0762 -0.3118,-0.0523 -0.37803,-0.1105 -0.39453,-0.12695 -0.0165,-0.0165 -0.0754,-0.0806 -0.12696,-0.39063 -0.0515,-0.31005 -0.0737,-0.81855 -0.0703,-1.50391 V 11.90031 8 4.09961 4.09761 c -0.003,-0.68537 0.0188,-1.19386 0.0703,-1.50391 0.0515,-0.31005 0.11045,-0.37416 0.12696,-0.39063 0.0165,-0.0165 0.0827,-0.0746 0.39453,-0.12695 0.31179,-0.0523 0.8191,-0.0762 1.5039,-0.0762 z"
     id="path937"
     inkscape:connector-curvature="0"
     sodipodi:nodetypes="scccssscccsscccscccssccccccccsccs" />
  <path
     inkscape:connector-curvature="0"
     style="color:#000000;display:inline;overflow:visible;visibility:visible;opacity:0.2;fill:#000000;fill-opacity:1;fill-rule:nonzero;stroke:none;stroke-width:0.25002289;marker:none;enable-background:accumulate"
     d="M 14.000558,5 V 4 l -3,-3 h -1.000001 v 1.53057 0.0587 0.0315 c 0,2.06981 0.27707,2.38897 2.351631,2.37882 z"
     id="rect4158-0-3-62-2-3-7-3"
     sodipodi:nodetypes="ccccccscc" />
  <path
     inkscape:connector-curvature="0"
     style="color:#000000;display:inline;overflow:visible;visibility:visible;fill:#faf8f6;fill-opacity:1;fill-rule:nonzero;stroke:none;stroke-width:0.25002289;marker:none;enable-background:accumulate"
     d="m 14.000558,3.99962 -3,-2.99962 v 1.11269 0.0485 0.026 c 0,1.70759 0.0787,1.82093 1.79021,1.81256 z"
     id="rect4158-0-3-62-6-5-5"
     sodipodi:nodetypes="ccccscc" />
</svg>
